resources/svg/top-right-o.svg

<svg width="15" height="15" viewBox="0 0 15 15" fill="none" xmlns="http://www.w3.org/2000/svg">
<path d="M13.5 1.5H14C14 1.22386 13.7761 1 13.5 1V1.5ZM13.5 1H8V2H13.5V1ZM13 1.5V7H14V1.5H13ZM13.1464 1.14645L1.14645 13.1464L1.85355 13.8536L13.8535 1.85355L13.1464 1.14645Z" fill="black"/>
</svg>

<svg viewBox="0 0 15 15" fill="none" xmlns="http://www.w3.org/2000/svg" fill="currentColor"><path d="M13.5 1.5h.5a.5.5 0 00-.5-.5v.5zm0-.5H8v1h5.5V1zm-.5.5V7h1V1.5h-1zm.146-.354l-12 12 .708.708 12-12-.708-.708z" fill="currentColor"/></svg>
